!!!COM: Scarlatti, Domenico
!!!CDT: 1685///-1757///
!!!OTL: Sonata in G Major, K.372, L.302
!!!SCT: K. 372
!!!SCT: L. 302
!!!OMD: Allegro
**kern	**kern	**dynam
*staff2	*staff1	*staff1/2
*Icemba	*Icemba	*Icemba
*>[A,A,B,B]	*>[A,A,B,B]	*>[A,A,B,B]
*>norep[A,B]	*>norep[A,B]	*>norep[A,B]
*>A	*>A	*>A
*clefF4	*clefG2	*clefG2
*k[f#]	*k[f#]	*k[f#]
*G:	*G:	*G:
*M6/8	*M6/8	*M6/8
*MM156	*MM156	*MM156
=1-	=1-	=1-
2.r	8r	.
.	(8gg\L	p
.	8dd\J)	.
.	8dd'\L	.
.	8dd'\	.
.	8dd'\J	.
=2	=2	=2
2.r	(8b\L	<
.	8g\	(
.	8dd\J	(
.	8gg\L)	(
.	8dd'\	(
.	8dd\J	[
=3	=3	=3
2.r	(8b\L	<
.	8g\	(
.	8dd\J	(
.	8gg\L)	(
.	8dd'\	(
.	8dd'\J	[
=4	=4	=4
8r	4.b\	<
(8g\L	.	(
8d\J)	.	(
8d'\L	4r	(
8d'\	.	(
8d'\J	8dd'\	(
=5	=5	=5
(8B\L	4.gg\	(
8G\	.	(
8d\J	.	(
8g\L)	4r	(
8d'\	.	(
8d'\J	8dd'\	(
=6	=6	=6
(8B\L	4.gg\	(
8G\	.	(
8d\J	.	(
8g\L)	4r	(
8d'\	.	(
8d'\J	8dd'\	[
=7	=7	=7
(8B\L	(4gg'\	f
8G\	.	.
8B\J)	8dd\)	.
(4.F#\ 4.c\ 4.d\	(8ee\L	p
.	8dd\	.
.	8cc\J	.
=8	=8	=8
4.G\) 4.d\	8b/L	.
.	8a/	.
.	8b/J)	.
(4.F#\ 4.c\ 4.d\	(8ee\L	.
.	8dd\	.
.	8cc\J	.
=9	=9	=9
*^	*	*
4.r	4.G\) 4.d\	8b/L	.
.	.	8a/	.
.	.	8b/J)	.
(8e/L	4.G\	(8cc\L	.
8d/	.	8b\	.
8c/J	.	8a\J	.
=10	=10	=10	=10
8B/L	4.G\	8g/L	.
8A/	.	8f#/	.
8B/J)	.	8g/J)	.
(8e/L	4.G\	(8cc/L	.
8d/	.	8b/	.
8c/J	.	8a/J	.
=11	=11	=11	=11
*	*	*^	*
8B/L	4.G\	4.r	8g/L	.
8A/	.	.	8f#/	.
8B/J)	.	.	8g/J)	.
4.r	4.D\ 4.A\ (4.c\	8aa/ (8ccc/L	4.dd\ 4.ff#\	f
.	.	8bb/	.	.
.	.	8aa/J	.	.
*v	*v	*	*	*
=12	=12	=12	=12
4.D\ 4.G\ 4.B\)	4.r	8gg\L	.
.	.	8ff#\	.
.	.	8gg\J)	.
4.D\ 4.A\ (4.c\	(8aa/L	4.dd\ 4.ff#\	.
.	8bb/	.	.
.	8aa/J	.	.
*	*v	*v	*
=13	=13	=13
*^	*	*
4.r	4.D\ 4.G\ 4.B\)	8gg\L	.
.	.	8ff#\	.
.	.	8gg\J)	.
(8c/L	4.D\	(8aa\L	mf
8B/	.	8gg\	.
8A/J	.	8ff#\J	.
=14	=14	=14	=14
8B/L	4.D\	8gg\L	.
8A/	.	8ff#\	.
8B/J	.	8gg\J	.
8c/L	4.D\	8aa\L	.
8B/	.	8gg\	.
8A/J)	.	8ff#\J	.
=15	=15	=15	=15
8G/L	(4.G\	4.gg\)	<
8d/	.	.	(
8g/J	.	.	(
8f#/L	4A\	4r	(
8e/)	.	.	(
8d'/J	8B\	8r	(
=16	=16	=16	=16
(8c/L	4c\	2.r	(
8e/	.	.	(
8a/J	8A\	.	(
8g/L	4B\)	.	(
8f#/	.	.	(
8e'/J	8c#\	.	(
=17	=17	=17	=17
*	*	*^	*
4.f#/	4.d\	8r	8r	[
.	.	8dd/L	(4dd\	f
.	.	8ddd/J	.	.
4.r	(4.D\	8cccn/L	4ee\	.
.	.	8bb/)	.	.
.	.	8aa'/J	8ff#'\	.
*v	*v	*	*	*
=18	=18	=18	=18
4.G\	(4bb/	8gg\L	.
.	.	8dd\	.
.	8aa/	8ff#\J	.
4.A\)	4.r	8ee\ 8gg\L)	.
.	.	8dd'\ 8ff#'\	.
.	.	8cc#'\ 8ee'\J	.
*	*v	*v	*
=19	=19	=19
*^	*	*
8D/L	(4D\	4.dd\ 4.ff#\	mf
8A/	.	.	.
8d/J	8D\	.	.
8cn/L	4E\	4r	.
8B/	.	.	.
8A'/J)	8F#'\	8r	.
=20	=20	=20	=20
(8G/L	4G\	2.r	.
8B/	.	.	.
8e/J	8E\	.	.
8d/L	4F#\	.	.
8c#/)	.	.	.
8B'/J	8G#'\	.	.
=21	=21	=21	=21
*	*	*^	*
4.c#/	4.A\	8r	8r	.
.	.	(8a/L	4a\	f
.	.	8aa/J	.	.
4.AA/	4.r	8ggn/L	4b\	.
.	.	8ff#/)	.	.
.	.	8ee/J	8cc#\	.
*	*	*v	*v	*
=22	=22	=22	=22
(8AA/L	4AA\	8dd\ (8ff#\	.
8E/	.	4cc\ 4ee\)	.
8A/J	8AA\	.	.
8G/L	4BB\	4r	.
8F#/)	.	.	.
8E'/J	8C#'\	8r	.
*v	*v	*	*
=23	=23	=23
*	*^	*
(4.D\ 4.F#\	8r	8r	.
.	8a/L	(4a\	.
.	8aa/J	.	.
4.AA\ 4.A\	8gg/L	4b\)	.
.	8ff#/	.	.
.	8ee'/J	8cc#'\	.
*	*v	*v	*
=24	=24	=24
4.D\) 4.A\	8dd\ (8ff#\L	.
.	8ee\ 8gg\	.
.	8ff#\ 8aa\J)	.
(4.FF#/ 4.F#/	8ff#\ (8aa\L	.
.	8gg\ 8bb\	.
.	8ff#\ 8aa\J)	.
=25	=25	=25
4.GG/ 4.G/	8ff#\ (8aa\L	.
.	8ee\ 8gg\	.
.	8dd\ 8ff#\J	.
4.AA\ 4.A\	8ee\L	.
.	8dd\	.
.	8cc#\J	.
=26	=26	=26
4.DD/) 4.D/	8dd\L)	f
.	8b\ (8gg\	.
.	8a\ 8ff#\J)	.
4r	8g'/ 8ee'/L	.
.	8f#'/ 8dd'/	.
8r	8e'/ 8cc#'/J	.
=27	=27	=27
*	*^	*
8r	4.dd^/	8f#'\	.
8B\ (8g\L	.	4r	.
8A\ 8f#\J)	.	.	.
8G'\ 8e'\L	4r	4r	.
8F#'\ 8d'\	.	.	.
8E'\ 8c#'\J	8r	8r	.
*	*v	*v	*
=28	=28	=28
4.F#^\ 4.d^\	8r	.
.	8b\ (8gg\L	.
.	8a\ 8ff#\J)	.
4r	8g'/ 8ee'/L	.
.	8f#'/ 8dd'/	.
8r	8e'/ 8cc#'/J	.
=29	=29	=29
*	*^	*
8r	4.dd^/	8f#'\	.
8B\ (8g\L	.	4r	.
8A\ 8f#\J)	.	.	.
8G'\ 8e'\L	4r	4r	.
8F#'\ 8d'\	.	.	.
8E'\ 8c#'\J	8r	8r	.
*	*v	*v	*
=30	=30	=30
4.F#^\ 4.d^\	8r	.
.	8dd\ (8ff#\L	.
.	8ee\ 8gg\J	.
(4.FF#/	8ff#\ 8aa\L	.
.	8gg\ 8bb\	.
.	8ff#\ 8aa\J)	.
=31	=31	=31
4.GG/	8ff#\ (8aa\L	.
.	8ee\ 8gg\	.
.	8dd\ 8ff#\J	.
4.AA/	8ee\L	.
.	8dd\	.
.	8cc#\J	.
=32	=32	=32
2.DD/)	8dd'\L)	.
.	(8ddd\	.
.	8aa\J	.
.	8ff#\L	.
.	8dd\)	.
.	8a'\J	.
=33	=33	=33
(4.GG/	(8b\L	.
.	8gg\	.
.	[8ee\J)	.
4.AA/	8ee\L]	.
.	(eeq/	.
.	8dd\	.
.	8cc#\J	.
=34	=34	=34
2.DD/)	8dd'\L)	.
.	(8ddd\	.
.	8aa\J	.
.	8ff#\L	.
.	8dd\)	.
.	8a'\J	.
=35	=35	=35
(4.GG/	(8b\L	.
.	8gg\	.
.	[8ee\J)	.
4.AA/	8ee\L]	.
.	eeq/	.
.	(8dd\	.
.	8cc#\J	.
=36	=36	=36
2.DD/)	2.dd\)	.
=37:|!|:	=37:|!|:	=37:|!|:
*>B	*>B	*>B
*	*^	*
2.D\	8r	(4dd\	p
.	[4ff#^/	.	.
.	.	8a\	.
.	8ff#/L]	4b\	.
.	8gg/	.	.
.	8ee/J	8cc#\	.
=38	=38	=38	=38
2.D\	[4.ff#/	8dd\L)	.
.	.	(8dd\	.
.	.	8a\J	.
.	8ff#/L]	4b\	.
.	8gg/	.	.
.	8ee/J	8cc#\	.
=39	=39	=39	=39
2.D\	[4.ff#/	8dd\L)	.
.	.	(8dd\	.
.	.	8a\J	.
.	8ff#/L]	4b\	.
.	8gg/	.	.
.	8ee/J	8cc#\	.
*	*v	*v	*
=40	=40	=40
4D\ 4d\	8dd\) 8ff#\L	<
.	8ee\ 8gg\	(
(8Cn\ 8cn\	[8ff#\ [8aa\J	[
4.BB\ 4.B\	8ff#\] 8aa\L]	mf
.	8ee\ (8gg\	.
.	8dd#\ 8ff#\J	.
=41	=41	=41
4.E\ 4.B\	8ee\ 8gg\L	p
.	8dd#\ 8ff#\	.
.	8ee\ 8gg\J	.
4.BB\ 4.B\	8ff#\ 8aa\L	<
.	8ee\ 8gg\	(
.	8dd#\ 8ff#\J	(
=42	=42	=42
4.E\ 4.B\	8ee\ 8gg\L	(
.	8dd#\ 8ff#\	(
.	8ee\ 8gg\J	(
4.BB\ 4.B\	8ff#\ 8aa\L	(
.	8ee\ 8gg\	(
.	8dd#\ 8ff#\J)	[
=43	=43	=43
*	*^	*
4.E\) 4.B\	4.gg#/	(8ddn\L	mf
.	.	8cc\	.
.	.	8b\J	.
(4.AA\ 4.A\	4aa/	8cc\L	.
.	.	8dd\)	.
.	(8ggn/	8ee\J	.
*	*v	*v	*
=44	=44	=44
4.D\ 4.A\	8ffn\L	.
.	8ee\	.
.	8dd\J	.
4.Fn\)	8cc\L	.
.	8b\	.
.	8a\J	.
=45	=45	=45
*^	*	*
8E/L	(4.E\	4.g#/)	.
8B/	.	.	.
8e/J	.	.	.
8d/L	4F#\	4r	.
8c/)	.	.	.
8B'/J	8G#'\	8r	.
=46	=46	=46	=46
4.c/	4.A\	8r	.
.	.	8ee\ (8ccc\L	f
.	.	8dd\ 8bb\J)	.
4r	4r	8cc'\ 8aa'\L	.
.	.	8b'\ 8ggn'\	.
8r	8r	8a'\ 8ffn'\J	.
=47	=47	=47	=47
8E/L	(4E\	4.g#\ 4.ee\	.
8B/	.	.	.
8e/J	8E\	.	.
8d/L	4F#\	4r	.
8c/)	.	.	.
8B'/J	8G#'\	8r	.
=48	=48	=48	=48
4.c/	4.A\	8r	.
.	.	8cc\ (8aa\L	mf
.	.	8b\ 8ggn\J	.
4r	4r	8a\ 8ffn\L	.
.	.	8g#\ 8ee\)	.
8r	8r	8a'\ 8ff'\J	.
=49	=49	=49	=49
8E/L	(4E\	4.g#\ 4.ee\	.
8B/	.	.	.
8e/J	8E\	.	.
8d/L	4F#\	4r	.
8c/)	.	.	.
8B'/J	8G#'\	8r	.
=50	=50	=50	=50
4.c/	4.A\	8r	.
.	.	8ee\ (8ccc\L	f
.	.	8dd\ 8bb\J)	.
4r	4r	8dd\ (8bb\L	.
.	.	8cc\ 8aa\)	.
8r	8r	8b'\ 8ggn'\J	.
=51	=51	=51	=51
8D/L	(4D\	4.a\ 4.ff#\	.
8A/	.	.	.
8d/J	8D\	.	.
8c/L	4E\	4r	.
8B/)	.	.	.
8A'/J	8F#'\	8r	.
=52	=52	=52	=52
4.B/	4.G\	8r	.
.	.	8b\ (8gg\L	mf
.	.	8a\ 8ff#\J	.
4r	4r	8g\ 8ee\L	.
.	.	8f#\ 8dd\)	.
8r	8r	8g'\ 8ee'\J	.
=53	=53	=53	=53
(8D/L	4D\	4.f#/ 4.dd/	.
8A/	.	.	.
8d/J	8D\	.	.
8c/L	4E\	4r	.
8B/	.	.	.
8A'/J)	8F#'\	8r	.
*v	*v	*	*
=54	=54	=54
8G'\ 8B'\L	8r	.
(8d\	[4dd^\	<
8F#\J	.	(
8E\L	8dd\]	(
8c\	[4ee^\	(
8D\J	.	(
=55	=55	=55
8C\L	8ee\]	(
8A\	[4ff#^\	(
8BB\J	.	(
8AA/L	8ff#\]	(
8G/	[4gg^\	(
8GG/J	.	(
=56	=56	=56
8FF#/L	8gg\]	(
8D/	[4aa^\	(
8EE/J	.	(
4DD/)	8aa\L]	(
.	(8bb\	(
(8C/	8ccc\J	[
=57	=57	=57
4BB/	8ddd\L	f
.	8ccc\	.
8C/	8bb\J	.
4D/)	8aa\L	.
.	8gg\	.
8DD'/	8ff#\J	.
=58	=58	=58
4.GG^/	8gg\L)	.
.	8ee^\ (8ccc^\	.
.	8dd\ 8bb\J)	.
4r	8cc'\ 8aa'\L	.
.	8b'\ 8gg'\	.
8r	8a'\ 8ff#'\J	.
*clefG2	*	*
=59	=59	=59
*	*^	*
8r	4.gg^/	8b\	.
(8e^/ 8cc^/L	.	4r	.
8d/) 8b/J	.	.	.
8c'/ 8a'/L	4r	4r	.
8B'/ 8g'/	.	.	.
8A'/ 8f#'/J	8r	8r	.
*	*v	*v	*
=60	=60	=60
4.B^/ 4.g^/	8r	.
.	8ee\ (8ccc\L	.
.	8dd\ 8bb\J)	.
4r	8cc'\ 8aa'\L	.
.	8b'\ 8gg'\	.
8r	8a'\ 8ff#'\J	.
=61	=61	=61
*	*^	*
8r	4.gg^/	8b'\	.
(8e^/ 8cc^/L	.	4r	.
8d/) 8b/J	.	.	.
8c'/ 8a'/L	4r	4r	.
8B'/ 8g'/	.	.	.
8A'/ 8f#'/J	8r	8r	.
*	*v	*v	*
=62	=62	=62
4.B^/ 4.g^/	8r	.
.	(8ddd\L	.
.	8bb\J	.
*clefF4	*	*
(4.BB/	8gg\L	.
.	8dd\)	.
.	8b'\J	.
=63	=63	=63
4.C/	(8ee\L	.
.	8cc\	.
.	[8a\J)	.
4.AA/	8a/L]	.
.	aq/	.
.	(8g/	.
.	8f#/J	.
=64	=64	=64
4.BB/)	8g'\L)	.
.	(8ddd\	.
.	8bb\J	.
(4.BB/	8gg\L	.
.	8dd\)	.
.	8b'\J	.
=65	=65	=65
4.C/	(8ee\L	.
.	8cc\	.
.	[8a\J)	.
4.D\	8a/L]	.
.	aq/	.
.	(8g/	.
.	8f#/J	.
=66	=66	=66
2.GG^/)	2.g/)	.
==:|!	==:|!	==:|!
*-	*-	*-
!!!ENC: Craig Stuart Sapp
!!!END: 2004/11/06/
